Sweet-Rainbow/icons/applications-other.svg

<?xml version="1.0" encoding="UTF-8" standalone="no"?>
<!-- Generator: Gravit.io -->

<svg
   xmlns:dc="http://purl.org/dc/elements/1.1/"
   xmlns:cc="http://creativecommons.org/ns#"
   xmlns:rdf="http://www.w3.org/1999/02/22-rdf-syntax-ns#"
   xmlns:svg="http://www.w3.org/2000/svg"
   xmlns="http://www.w3.org/2000/svg"
   xmlns:sodipodi="http://sodipodi.sourceforge.net/DTD/sodipodi-0.dtd"
   xmlns:inkscape="http://www.inkscape.org/namespaces/inkscape"
   style="isolation:isolate"
   viewBox="0 0 36 36"
   width="48"
   height="48"
   version="1.1"
   id="svg9"
   sodipodi:docname="applications-other.svg"
   inkscape:version="0.92.4 (5da689c313, 2019-01-14)">
  <metadata
     id="metadata15">
    <rdf:RDF>
      <cc:Work
         rdf:about="">
        <dc:format>image/svg+xml</dc:format>
        <dc:type
           rdf:resource="http://purl.org/dc/dcmitype/StillImage" />
        <dc:title></dc:title>
      </cc:Work>
    </rdf:RDF>
  </metadata>
  <defs
     id="defs13" />
  <sodipodi:namedview
     pagecolor="#ffffff"
     bordercolor="#666666"
     borderopacity="1"
     objecttolerance="10"
     gridtolerance="10"
     guidetolerance="10"
     inkscape:pageopacity="0"
     inkscape:pageshadow="2"
     inkscape:window-width="640"
     inkscape:window-height="480"
     id="namedview11"
     showgrid="false"
     inkscape:zoom="29.365243"
     inkscape:cx="25.325443"
     inkscape:cy="32"
     inkscape:current-layer="svg9"
     units="px" />
  <linearGradient
     id="_lgradient_0"
     x1="0"
     y1="0.49999997"
     x2="1"
     y2="0.49999997"
     gradientTransform="matrix(46,0,0,42,1,4)"
     gradientUnits="userSpaceOnUse">
    <stop
       offset="0%"
       stop-opacity="1"
       style="stop-color:rgb(255,143,195)"
       id="stop2" />
    <stop
       offset="100%"
       stop-opacity="1"
       style="stop-color:rgb(161,161,255)"
       id="stop4" />
  </linearGradient>
  <g
     id="g826"
     transform="matrix(0.7826087,0,0,0.7826087,-0.7826088,-1.5652175)">
    <path
       id="path7"
       d="m 24.5,34.88 v 0 -9.38 0 C 24.5,24.672 23.828,24 23,24 v 0 c -0.828,0 -1.5,0.672 -1.5,1.5 v 0 9.38 l -1.44,-1.44 v 0 c -0.585,-0.585 -1.535,-0.585 -2.12,0 v 0 c -0.585,0.585 -0.585,1.535 0,2.12 v 0 l 3.29,3.29 c 0,0 0,0 0,0 0.47,0.47 1.11,0.74 1.77,0.74 0.66,0 1.3,-0.27 1.77,-0.74 0,0 0,0 0,0 l 3.29,-3.29 v 0 c 0.585,-0.585 0.585,-1.535 0,-2.12 v 0 c -0.585,-0.585 -1.535,-0.585 -2.12,0 v 0 z M 14.5,16 H 6 c -2.76,0 -5,2.24 -5,5 v 20 c 0,2.76 2.24,5 5,5 h 36 c 2.76,0 5,-2.24 5,-5 v -3.5 0 c 0,-1.104 -0.896,-2 -2,-2 v 0 c -1.104,0 -2,0.896 -2,2 v 0 0 1.5 c 0,1.656 -1.344,3 -3,3 H 8 C 6.344,42 5,40.656 5,39 V 20 h 9.5 v 2 0 c 0,1.104 1.064,2 2.375,2 v 0 c 1.311,0 2.375,-0.896 2.375,-2 v 0 -9.97 c 0.012,-0.42 0.119,-0.83 0.309,-1.22 0.142,-0.39 0.38,-0.77 0.677,-1.09 0.32,-0.32 0.665,-0.61 1.045,-0.87 0.273,-0.2 0.582,-0.36 0.902,-0.49 C 22.456,8.24 22.753,8.15 23.05,8.09 23.359,8.03 23.679,8 24,8 c 0.321,0 0.641,0.03 0.95,0.09 0.297,0.06 0.594,0.15 0.867,0.27 0.32,0.13 0.629,0.29 0.902,0.49 0.38,0.26 0.725,0.55 1.045,0.87 0.297,0.32 0.535,0.7 0.677,1.09 0.19,0.39 0.297,0.8 0.309,1.22 V 16 H 25 v 0 c -1.104,0 -2,0.896 -2,2 v 0 c 0,1.104 0.896,2 2,2 v 0 0 h 3.75 v 2 0 c 0,1.104 1.064,2 2.375,2 v 0 c 1.311,0 2.375,-0.896 2.375,-2 v 0 -2 H 43 v 10 0 c 0,1.104 0.896,2 2,2 v 0 c 1.104,0 2,-0.896 2,-2 v 0 -9 c 0,-2.76 -2.24,-5 -5,-5 h -8.5 v -4 c 0,-0.02 0,-0.03 0,-0.05 C 33.476,11.1 33.274,10.25 32.918,9.46 32.586,8.64 32.099,7.88 31.458,7.2 30.947,6.68 30.365,6.19 29.736,5.76 29.189,5.37 28.572,5.04 27.931,4.77 27.325,4.52 26.684,4.32 26.019,4.2 25.366,4.07 24.677,4 24,4 c -0.677,0 -1.366,0.07 -2.019,0.2 -0.665,0.12 -1.306,0.32 -1.912,0.57 -0.641,0.27 -1.258,0.6 -1.805,0.99 -0.629,0.43 -1.211,0.92 -1.722,1.44 -0.641,0.68 -1.128,1.44 -1.46,2.26 -0.356,0.79 -0.558,1.64 -0.582,2.49 0,0.02 0,0.03 0,0.05 z"
       style="fill:url(#_lgradient_0);fill-rule:evenodd"
       inkscape:connector-curvature="0" />
  </g>
</svg>

<?xml version="1.0" encoding="UTF-8" standalone="no"?>
<!-- Generator: Gravit.io -->
<svg xmlns="http://www.w3.org/2000/svg" xmlns:xlink="http://www.w3.org/1999/xlink" style="isolation:isolate" viewBox="0 0 48 48" width="48pt" height="48pt"><linearGradient id="_lgradient_0" x1="0" y1="0.4999999772727428" x2="1" y2="0.4999999772727428" gradientTransform="matrix(46,0,0,42,1,4)" gradientUnits="userSpaceOnUse"><stop offset="0%" stop-opacity="1" style="stop-color:rgb(255,143,195)"/><stop offset="100%" stop-opacity="1" style="stop-color:rgb(161,161,255)"/></linearGradient><path d=" M 24.5 34.88 L 24.5 34.88 L 24.5 25.5 L 24.5 25.5 C 24.5 24.672 23.828 24 23 24 L 23 24 C 22.172 24 21.5 24.672 21.5 25.5 L 21.5 25.5 L 21.5 34.88 L 20.06 33.44 L 20.06 33.44 C 19.475 32.855 18.525 32.855 17.94 33.44 L 17.94 33.44 C 17.355 34.025 17.355 34.975 17.94 35.56 L 17.94 35.56 L 21.23 38.85 C 21.23 38.85 21.23 38.85 21.23 38.85 C 21.7 39.32 22.34 39.59 23 39.59 C 23.66 39.59 24.3 39.32 24.77 38.85 C 24.77 38.85 24.77 38.85 24.77 38.85 L 28.06 35.56 L 28.06 35.56 C 28.645 34.975 28.645 34.025 28.06 33.44 L 28.06 33.44 C 27.475 32.855 26.525 32.855 25.94 33.44 L 25.94 33.44 L 24.5 34.88 Z  M 14.5 16 L 6 16 C 3.24 16 1 18.24 1 21 L 1 41 C 1 43.76 3.24 46 6 46 L 42 46 C 44.76 46 47 43.76 47 41 L 47 37.5 L 47 37.5 C 47 36.396 46.104 35.5 45 35.5 L 45 35.5 C 43.896 35.5 43 36.396 43 37.5 L 43 37.5 L 43 37.5 L 43 39 C 43 40.656 41.656 42 40 42 L 8 42 C 6.344 42 5 40.656 5 39 L 5 20 L 14.5 20 L 14.5 22 L 14.5 22 C 14.5 23.104 15.564 24 16.875 24 L 16.875 24 C 18.186 24 19.25 23.104 19.25 22 L 19.25 22 L 19.25 12.03 C 19.262 11.61 19.369 11.2 19.559 10.81 C 19.701 10.42 19.939 10.04 20.236 9.72 C 20.556 9.4 20.901 9.11 21.281 8.85 C 21.554 8.65 21.863 8.49 22.183 8.36 C 22.456 8.24 22.753 8.15 23.05 8.09 C 23.359 8.03 23.679 8 24 8 C 24.321 8 24.641 8.03 24.95 8.09 C 25.247 8.15 25.544 8.24 25.817 8.36 C 26.137 8.49 26.446 8.65 26.719 8.85 C 27.099 9.11 27.444 9.4 27.764 9.72 C 28.061 10.04 28.299 10.42 28.441 10.81 C 28.631 11.2 28.738 11.61 28.75 12.03 L 28.75 16 L 25 16 L 25 16 C 23.896 16 23 16.896 23 18 L 23 18 C 23 19.104 23.896 20 25 20 L 25 20 L 25 20 L 28.75 20 L 28.75 22 L 28.75 22 C 28.75 23.104 29.814 24 31.125 24 L 31.125 24 C 32.436 24 33.5 23.104 33.5 22 L 33.5 22 L 33.5 20 L 43 20 L 43 30 L 43 30 C 43 31.104 43.896 32 45 32 L 45 32 C 46.104 32 47 31.104 47 30 L 47 30 L 47 21 C 47 18.24 44.76 16 42 16 L 33.5 16 L 33.5 12 C 33.5 11.98 33.5 11.97 33.5 11.95 C 33.476 11.1 33.274 10.25 32.918 9.46 C 32.586 8.64 32.099 7.88 31.458 7.2 C 30.947 6.68 30.365 6.19 29.736 5.76 C 29.189 5.37 28.572 5.04 27.931 4.77 C 27.325 4.52 26.684 4.32 26.019 4.2 C 25.366 4.07 24.677 4 24 4 C 23.323 4 22.634 4.07 21.981 4.2 C 21.316 4.32 20.675 4.52 20.069 4.77 C 19.428 5.04 18.811 5.37 18.264 5.76 C 17.635 6.19 17.053 6.68 16.542 7.2 C 15.901 7.88 15.414 8.64 15.082 9.46 C 14.726 10.25 14.524 11.1 14.5 11.95 C 14.5 11.97 14.5 11.98 14.5 12 L 14.5 16 L 14.5 16 Z " fill-rule="evenodd" fill="url(#_lgradient_0)"/></svg>
